X:1
T:James Gibb editions
T:Fortune alors - Certon
T:#
%%score [ 1 2 3 4 ]
L:1/8
Q:1/4=150
M:2/2
K:F
V:1 treble nm="Soprano" snm="S"
V:2 treble nm="Alto" snm="A"
V:3 treble-8 nm="Tenor" snm="T"
V:4 bass nm="Bass" snm="B"
V:1
"^Fortune alors""^Pierre Certon\n(1510-72)" B8- | B4 A4 | G8 | F4 A4 | A4 A4 | B4 B4 | G4 (c2 B2 | %7
w: For\-|* tu-|ne|a- lors|que n'a-|vais con-|nais- san\- *|
[M:2/2] A2 G2 F2 E2 | D4 B4 | A4 G4- | G4 ^F4) | G8 | z4 A4 | A8 | A8 | F8 | z4 B4 | B4 A4 | %18
w: ||||ce,|Sui-|vre|mon|bien|me|don- na|
 (B6 c2 | d4) (c4- | c2 B2 B4- | B4 A4) | B4 F4 | G8 | G8 | F4 B4 | c4 d4 | c4 B4 | (B4 A2 G2) | %29
w: sa *|* fa\-|||veur, Mais|main-|te-|nant el-|le tour-|ne sa|chan\- * *|
 ^F8- | F8 | B8- | B4 A4 | G8 | F4 A4 | A4 A4 | B4 B4 | (G4 c2 B2 | A2 G2 F2 E2 | %39
w: ce.||Au|* lieu|d'ai-|der el-|le me|tient ri-|gueur, * *||
 D4)[Q:1/4=148] B4 |[Q:1/4=145] A4[Q:1/4=143] G4 |[Q:1/4=140] G4[Q:1/4=137] ^F4 |[Q:1/4=131] G16 |] %43
w: * el-|le me|tient ri-|gueur.|
V:2
 F8- | F4 F4 | D8 | D4 F4 | F4 F4 | D4 D4 | E8 |[M:2/2] C4 F4- | F4 G4 | (E4 C4) | D8 | B,8 | %12
w: For\-|* tu-|ne|a- lors|que n'a-|vais con-|nais-|san- ce,|* con-|nais\- *|san-|ce,|
 z4 C4 | F4 F4 | E8 | z4 F4 | F4 E4 | F4 C4 | (D2 C2 D2 E2 | F6 E2 | D4 C2 B,2 | C8 | B,4) D4 | %23
w: Sui-|vre mon|bien|me|don- na|sa fa-|veur, * * *||||* Mais|
 _E8 | _E8 | D4 B,4 | F4 F4 | F4 D4- | D4 C4 | D8- | D8 | F8- | F4 F4 | D8 | D4 F4 | F4 F4 | %36
w: main-|te-|nant el-|le tour-|ne sa|* chan-|ce.||Au|* lieu|d'ai-|der el-|le me|
 D4 D4 | E8 | (C4 F4- | F4) G4 | E4 C4 | D8 | =B,16 |] %43
w: tient ri-|gueur,|el\- *|* le|me tient|ri-|gueur.|
V:3
 d8- | d4 c4 | B8 | A4 d4 | d4 d4 | B4 B4 | (c2 B2 A2 G2) |[M:2/2][K:treble-8] F4 F4 | B4 B4 | %9
w: For\-|* tu-|ne|a- lors|que n'a-|vais con-|nais\- * * *|san- ce,|que n'a-|
 (c2 B2 A2) G2 | A4 A4 | G4 B4- | B4 A4- | A4 (d4- | d4 ^c4) | d8 | z8 | z8 | z4 B4 | B4 A4 | %20
w: vais * * con-|nais- san-|ce, Sui\-|* vre|* mon||bien|||me|don- na|
 B4 (G4 | F8 | B4 B4 | B8 | B8 | B4 F4 | A4 B4 | A4 G4 | G8 | A8- | A8 | d8- | d4 c4 | B8 | A4 d4 | %35
w: sa fa\-||veur, Mais|main-|te-|nant el-|le tour-|ne sa|chan-|ce.||Au|* lieu|d'ai-|der el-|
 d4 d4 | B4 B4 | c2 B2 A2 G2 | F4) F4 | B4 B4 | (c2 B2 A2 G2 | A4) A4 | G16 |] %43
w: le me|tient ri-|gueur, * * *|* el-|le me|tient * * *|* ri-|gueur.|
V:4
 B,,8- | B,,4 F,,4 | (G,,2 A,,2 B,,2) C,2 | D,8 | z4 D,4 | G,4 G,4 | C,4 C,4 | %7
w: For\-|* tu-|ne * * a-|lors|que|n'a- vais|con- nais-|
[M:2/2] (F,2 E,2 D,2 C,2 | B,,2 A,,2 G,,4 | C,4 _E,4 | D,8) | G,,4 G,4 | G,4 F,4 | %13
w: san\- * * *||||ce, Sui-|vre mon|
 (D,2 E,2 F,2 G,2 | A,4 A,4 | (B,2 A,2- A,2 G,F,) | G,4 G,4 | F,8 | B,,8 | z8 | z8 | z8 | z4 B,,4 | %23
w: bien * * *|* me|don\- * * * *|na sa|fa-|veur,||||Mais|
 _E,8 | _E,8 | B,,8 | z4 B,,4 | F,4 G,4 | _E,4 E,4 | D,8 | D,8 | B,,8- | B,,4 F,,4 | %33
w: main-|te-|nant|el-|le tour-|ne sa|chan-|ce.|Au|* lieu|
 G,,2 A,,2 B,,2 C,2) | D,4 D,4 | D,4 D,4 | G,4 G,4 | C,4 (C,4 | F,2 E,2 D,2 C,2 | B,,2 A,,2) G,,4 | %40
w: d'ai\- * * *|der el-|le me|tient ri-|gueur, el\-||* * le|
 C,4 _E,4 | D,8 | G,,16 |] %43
w: me tient|ri-|gueur.|

